epam-assets/icon-sources/36/linkedin.svg

<svg width="36" height="36" viewBox="0 0 36 36" fill="none" xmlns="http://www.w3.org/2000/svg">
<path d="M28.5614 28.562H24.1164V21.6006C24.1164 19.9406 24.0867 17.8037 21.8045 17.8037C19.4893 17.8037 19.1351 19.6123 19.1351 21.4798V28.5616H14.6901V14.2461H18.9573V16.2025H19.017C19.4441 15.4723 20.0612 14.8716 20.8026 14.4644C21.5441 14.0571 22.382 13.8587 23.2273 13.89C27.7326 13.89 28.5633 16.8535 28.5633 20.7088L28.5614 28.562ZM9.67455 12.2893C9.16436 12.2894 8.66561 12.1382 8.24136 11.8548C7.8171 11.5714 7.48641 11.1686 7.29109 10.6973C7.09577 10.226 7.04459 9.7073 7.14403 9.20688C7.24347 8.70647 7.48906 8.24678 7.84975 7.88595C8.21044 7.52512 8.67003 7.27935 9.17039 7.17973C9.67075 7.0801 10.1894 7.1311 10.6608 7.32626C11.1322 7.52142 11.5351 7.85198 11.8186 8.27614C12.1021 8.70031 12.2535 9.19902 12.2536 9.70922C12.2537 10.048 12.187 10.3834 12.0574 10.6964C11.9279 11.0094 11.7379 11.2938 11.4984 11.5334C11.2589 11.773 10.9746 11.9631 10.6617 12.0928C10.3487 12.2225 10.0133 12.2892 9.67455 12.2893ZM11.8971 28.562H7.44737V14.2461H11.8971V28.562ZM30.7775 3.00204H5.21374C4.63351 2.9955 4.07442 3.21958 3.65932 3.62505C3.24422 4.03053 3.00708 4.58422 3 5.16445V30.8351C3.00684 31.4156 3.24383 31.9697 3.65892 32.3756C4.074 32.7815 4.63323 33.006 5.21374 32.9998H30.7775C31.3591 33.0071 31.9199 32.7832 32.3366 32.3774C32.7534 31.9715 32.9919 31.4168 33 30.8351V5.1626C32.9917 4.58121 32.753 4.02689 32.3362 3.62143C31.9195 3.21597 31.3589 2.99252 30.7775 3.00019V3.00204Z" fill="#6C6F80"/>
</svg>

<svg xmlns="http://www.w3.org/2000/svg" width="36" height="36" fill="none" viewBox="0 0 36 36">
  <path fill="#6C6F80" d="M28.561 28.562h-4.445v-6.961c0-1.66-.03-3.797-2.311-3.797-2.316 0-2.67 1.808-2.67 3.676v7.082H14.69V14.246h4.267v1.957h.06a4.677 4.677 0 0 1 4.21-2.313c4.506 0 5.336 2.963 5.336 6.819l-.002 7.853ZM9.675 12.289a2.58 2.58 0 1 1-.001-5.158 2.58 2.58 0 0 1 0 5.158Zm2.222 16.273h-4.45V14.246h4.45v14.316Zm18.88-25.56H5.215A2.19 2.19 0 0 0 3 5.164v25.671A2.19 2.19 0 0 0 5.214 33h25.564A2.195 2.195 0 0 0 33 30.835V5.163A2.194 2.194 0 0 0 30.777 3v.002Z"/>
</svg>
